X: 19
M:6/8
L:1/8
Q:105
K:GAeol
a2f b2g|af2 d2e|fd2 c2d|dc2 d3|B2c d>ed|ed2 c3|d2g ^f2g|a^f2 g3||

